public/topics/20.svg

<svg width="250" height="250" viewBox="0 0 250 250" fill="none" xmlns="http://www.w3.org/2000/svg">
<rect width="250" height="250" rx="30" fill="#0033CC"/>
<path d="M49.2 174.2C53.7333 174.467 56.7333 174.6 58.2 174.6C62.7333 174.6 66.7333 174.533 70.2 174.4C73.8 174.267 76.8667 174.133 79.4 174C85.9333 173.6 91.8 173.4 97 173.4C102.067 173.4 105.8 174.733 108.2 177.4C110.6 180.067 111.8 183.6 111.8 188C111.8 190.133 110.4 191.867 107.6 193.2C104.8 194.4 101.933 195 99 195C96.4667 195 91.2 194.733 83.2 194.2C73.6 193.4 66.0667 193 60.6 193C57.6667 193 54.2 193.2 50.2 193.6C48.6 193.733 46.6667 193.867 44.4 194C42.1333 194.133 39.6 194.2 36.8 194.2C31.4667 194.2 27.4 193.467 24.6 192C21.8 190.533 20.4 187.867 20.4 184C20.4 180.667 21.7333 177.267 24.4 173.8C27.0667 170.333 30.8 166.2 35.6 161.4L40.4 156.6C42.5333 154.333 46.4667 150.467 52.2 145C61.6667 136.467 69 128.933 74.2 122.4C79.5333 115.867 82.2 109.4 82.2 103C82.2 98.8667 80.2 95.5333 76.2 93C72.3333 90.3333 67.8667 89 62.8 89C55.0667 89 49.4667 90.7333 46 94.2C42.6667 97.5333 41 102.4 41 108.8C41 110.4 40.0667 111.867 38.2 113.2C36.4667 114.4 34.2667 115 31.6 115C27.8667 115 25.2667 113.667 23.8 111C22.3333 108.333 21.6 105.067 21.6 101.2C21.6 95.0667 23.4667 89.6667 27.2 85C30.9333 80.2 36 76.4667 42.4 73.8C48.9333 71.1333 56.1333 69.8 64 69.8C69.6 69.8 75.4 71.2 81.4 74C87.5333 76.6667 92.6 80.3333 96.6 85C100.733 89.5333 102.8 94.5333 102.8 100C102.8 108.267 100.733 116.133 96.6 123.6C92.4667 131.067 87.6 137.733 82 143.6C76.5333 149.333 69.4 156.133 60.6 164C56.3333 167.6 52.5333 171 49.2 174.2ZM214.073 82.2C218.473 89 222.007 96.8 224.673 105.6C227.34 114.267 228.673 123.133 228.673 132.2C228.673 143 226.807 153.267 223.073 163C219.473 172.733 214.007 180.667 206.673 186.8C199.473 192.933 190.673 196 180.273 196C170.54 196 161.607 193.533 153.473 188.6C145.34 183.533 139.207 177.667 135.073 171C132.007 166.067 129.673 160.533 128.073 154.4C126.473 148.133 125.673 141.867 125.673 135.6C125.673 124.667 127.94 114 132.473 103.6C137.14 93.2 143.54 84.8667 151.673 78.6C159.407 72.8667 168.273 70 178.273 70C189.34 70 201.273 74.0667 214.073 82.2ZM160.473 96C159.273 98 158.073 99.8 156.873 101.4C153.94 105.8 151.807 109.533 150.473 112.6C149.14 115.533 147.94 120.067 146.873 126.2C146.34 129 146.073 132.267 146.073 136C146.073 145.467 147.94 153.667 151.673 160.6C155.54 167.4 160.807 172 167.473 174.4C170.673 175.6 174.273 176.2 178.273 176.2C188.273 176.2 195.807 171.8 200.873 163C206.073 154.067 208.673 143.067 208.673 130C208.673 117.867 206.407 107.933 201.873 100.2C197.34 92.3333 190.34 88.4 180.873 88.4C177.007 88.4 173.673 89 170.873 90.2C168.207 91.4 164.74 93.3333 160.473 96Z" fill="white"/>
</svg>

<svg xmlns="http://www.w3.org/2000/svg" width="250" height="250" fill="none" viewBox="0 0 250 250"><rect width="250" height="250" fill="#03c" rx="30"/><path fill="#fff" d="M49.2 174.2q6.8.4 9 .4 6.8 0 12-.2 5.4-.2 9.2-.4 9.8-.6 17.6-.6 7.6 0 11.2 4t3.6 10.6q0 3.2-4.2 5.2-4.2 1.8-8.6 1.8-3.8 0-15.8-.8-14.4-1.2-22.6-1.2-4.4 0-10.4.6-2.4.2-5.8.4t-7.6.2q-8 0-12.2-2.2t-4.2-8q0-5 4-10.2t11.2-12.4l4.8-4.8q3.2-3.4 11.8-11.6 14.2-12.8 22-22.6 8-9.8 8-19.4 0-6.2-6-10-5.8-4-13.4-4-11.6 0-16.8 5.2-5 5-5 14.6 0 2.4-2.8 4.4-2.6 1.8-6.6 1.8-5.6 0-7.8-4t-2.2-9.8q0-9.2 5.6-16.2 5.6-7.2 15.2-11.2 9.8-4 21.6-4 8.4 0 17.4 4.2 9.2 4 15.2 11 6.2 6.8 6.2 15 0 12.4-6.2 23.6t-14.6 20q-8.2 8.6-21.4 20.4-6.4 5.4-11.4 10.2m164.873-92q6.6 10.2 10.6 23.4a90 90 0 0 1 4 26.6q0 16.2-5.6 30.8-5.4 14.6-16.4 23.8-10.8 9.2-26.4 9.2-14.6 0-26.8-7.4-12.2-7.6-18.4-17.6-4.6-7.4-7-16.6-2.4-9.4-2.4-18.8 0-16.4 6.8-32 7-15.6 19.2-25 11.6-8.6 26.6-8.6 16.6 0 35.8 12.2m-53.6 13.8q-1.8 3-3.6 5.4-4.4 6.6-6.4 11.2-2 4.4-3.6 13.6-.8 4.2-.8 9.8 0 14.2 5.6 24.6 5.8 10.2 15.8 13.8 4.8 1.8 10.8 1.8 15 0 22.6-13.2 7.8-13.4 7.8-33 0-18.2-6.8-29.8-6.8-11.8-21-11.8-5.8 0-10 1.8-4 1.8-10.4 5.8"/></svg>
